src/assets/images/prototype/produits-labellises/2-adoucissant.svg

<svg width="275" height="655" viewBox="0 0 275 655" fill="none" xmlns="http://www.w3.org/2000/svg">
<path d="M6.08342 335.5C-6.71658 443.5 23.4168 587.5 40.0834 646C128.083 656.4 204.75 650.333 232.084 646C246.25 572.833 273.984 410.9 271.584 348.5C269.184 286.1 215.917 176.167 189.584 129H85.0835C64.0835 152.833 18.8834 227.5 6.08342 335.5Z" fill="white"/>
<path d="M40.0834 646L37.6791 646.685C37.9555 647.655 38.7881 648.364 39.79 648.483L40.0834 646ZM85.0835 129V126.5C84.3656 126.5 83.6824 126.809 83.2078 127.347L85.0835 129ZM189.583 129L191.766 127.781C191.325 126.99 190.49 126.5 189.583 126.5V129ZM232.083 646L232.475 648.469C233.514 648.305 234.338 647.508 234.538 646.475L232.083 646ZM42.4877 645.315C25.847 586.906 -4.17455 443.293 8.56603 335.794L3.60078 335.206C-9.25865 443.707 20.9865 588.094 37.6791 646.685L42.4877 645.315ZM8.56603 335.794C21.308 228.284 66.3043 154.094 86.9592 130.653L83.2078 127.347C61.8627 151.572 16.4588 226.716 3.60078 335.206L8.56603 335.794ZM85.0835 131.5H189.583V126.5H85.0835V131.5ZM187.401 130.219C200.526 153.728 220.381 192.913 237.246 233.987C254.147 275.148 267.904 317.875 269.085 348.596L274.082 348.404C272.863 316.725 258.787 273.285 241.871 232.088C224.92 190.804 204.974 151.439 191.766 127.781L187.401 130.219ZM269.085 348.596C270.275 379.529 263.982 435.387 255.572 492.851C247.175 550.235 236.707 608.971 229.629 645.525L234.538 646.475C241.627 609.862 252.109 551.049 260.52 493.574C268.919 436.18 275.292 379.871 274.082 348.404L269.085 348.596ZM231.692 643.531C204.576 647.83 128.14 653.889 40.3768 643.517L39.79 648.483C128.027 658.911 204.924 652.837 232.475 648.469L231.692 643.531Z" fill="#81EC40"/>
<path d="M98.5859 48.5C96.1859 58.9 89.5859 106.5 86.5859 129H139.586H189.586C185.086 108 176.086 62.5 176.086 48.5V10.5C169.753 8 153.586 3 139.586 3C125.586 3 106.419 8 98.5859 10.5C99.5859 18.8333 100.986 38.1 98.5859 48.5Z" fill="white" stroke="#81EC40" stroke-width="5" stroke-linejoin="round"/>
</svg>

<svg width="275" height="655" fill="none" xmlns="http://www.w3.org/2000/svg"><path d="M6.083 335.5c-12.8 108 17.334 252 34 310.5 88 10.4 164.667 4.333 192.001 0 14.166-73.167 41.9-235.1 39.5-297.5-2.4-62.4-55.667-172.333-82-219.5h-104.5c-21 23.833-66.2 98.5-79 206.5z" fill="#fff"/><path d="M40.083 646l-2.404.685a2.502 2.502 0 002.111 1.798l.293-2.483zm45-517v-2.5c-.717 0-1.4.309-1.875.847L85.084 129zm104.5 0l2.183-1.219a2.498 2.498 0 00-2.183-1.281v2.5zm42.5 517l.392 2.469a2.498 2.498 0 002.063-1.994l-2.455-.475zm-189.595-.685C25.847 586.906-4.175 443.293 8.566 335.794l-4.965-.588C-9.26 443.707 20.987 588.094 37.679 646.685l4.809-1.37zM8.566 335.794c12.742-107.51 57.738-181.7 78.393-205.141l-3.751-3.306C61.863 151.572 16.458 226.716 3.6 335.206l4.965.588zM85.083 131.5h104.5v-5h-104.5v5zm102.318-1.281c13.125 23.509 32.98 62.694 49.845 103.768 16.901 41.161 30.658 83.888 31.839 114.609l4.997-.192c-1.219-31.679-15.295-75.119-32.211-116.316-16.951-41.284-36.897-80.649-50.105-104.307l-4.365 2.438zm81.684 218.377c1.19 30.933-5.103 86.791-13.513 144.255-8.397 57.384-18.865 116.12-25.943 152.674l4.909.95c7.089-36.613 17.571-95.426 25.982-152.901 8.399-57.394 14.772-113.703 13.562-145.17l-4.997.192zm-37.393 294.935c-27.116 4.299-103.552 10.358-191.315-.014l-.587 4.966c88.237 10.428 165.134 4.354 192.685-.014l-.783-4.938z" fill="#81EC40"/><path d="M98.586 48.5c-2.4 10.4-9 58-12 80.5h103c-4.5-21-13.5-66.5-13.5-80.5v-38c-6.333-2.5-22.5-7.5-36.5-7.5s-33.167 5-41 7.5c1 8.333 2.4 27.6 0 38z" fill="#fff" stroke="#81EC40" stroke-width="5" stroke-linejoin="round"/></svg>
